icons/fill-new-office-doc-file-rar.svg

<svg xmlns="http://www.w3.org/2000/svg" width="32px" height="32px" viewBox="0 0 32 32" version="1.1">
    <title>fill-new-office-doc-file-rar</title>
    <g id="fill-new-office-doc-file-rar" stroke-width="1" fill-rule="evenodd">
        <path d="M28,25 L28,29 C28,29.5522847 27.5522847,30 27,30 L5,30 C4.44771525,30 4,29.5522847 4,29 L4,25 L28,25 Z M29,10 C29.5522847,10 30,10.4477153 30,11 L30,22 C30,22.5522847 29.5522847,23 29,23 L3,23 C2.44771525,23 2,22.5522847 2,22 L2,11 C2,10.4477153 2.44771525,10 3,10 L29,10 Z M10.4,12.5 L5.5,12.5 L5.5,20.5 L7.5,20.5 L7.5,18 L8.381,17.9996917 L9.631,20.4996917 L11.868,20.4996917 L10.6083255,17.9802998 C11.1162234,17.8829392 11.5,17.4362875 11.5,16.9 L11.5,13.6 C11.5,12.9924868 11.0075132,12.5 10.4,12.5 Z M25.4,12.5 L20.5,12.5 L20.5,20.5 L22.5,20.5 L22.5,18 L23.381,17.9996917 L24.631,20.4996917 L26.868,20.4996917 L25.6083255,17.9802998 C26.1162234,17.8829392 26.5,17.4362875 26.5,16.9 L26.5,13.6 C26.5,12.9924868 26.0075132,12.5 25.4,12.5 Z M17.176,12.4996917 L14.823,12.4996917 L12.6,20.4996917 L14.676,20.4996917 L14.954,19.4996917 L17.045,19.4996917 L17.323,20.4996917 L19.399,20.4996917 L17.176,12.4996917 Z M16,15.736 L16.489,17.4996917 L15.509,17.4996917 L16,15.736 Z M9.5,14.5 L9.5,16 L7.5,16 L7.5,14.5 L9.5,14.5 Z M24.5,14.5 L24.5,16 L22.5,16 L22.5,14.5 L24.5,14.5 Z M20.0857864,2 C20.3510029,2 20.6053568,2.10535684 20.7928932,2.29289322 L26.5,8 L4,8 L4,3 C4,2.48716416 4.38604019,2.06449284 4.88337887,2.00672773 L5,2 L20.0857864,2 Z" id="&#24418;&#29366;" />
    </g>
</svg>

<svg xmlns="http://www.w3.org/2000/svg" viewBox="0 0 32 32"><path fill="currentColor" d="M28 25v4a1 1 0 0 1-1 1H5a1 1 0 0 1-1-1v-4zm1-15a1 1 0 0 1 1 1v11a1 1 0 0 1-1 1H3a1 1 0 0 1-1-1V11a1 1 0 0 1 1-1zm-18.6 2.5H5.5v8h2V18h.881l1.25 2.5h2.237l-1.26-2.52a1.1 1.1 0 0 0 .892-1.08v-3.3a1.1 1.1 0 0 0-1.1-1.1m15 0h-4.9v8h2V18h.881l1.25 2.5h2.237l-1.26-2.52a1.1 1.1 0 0 0 .892-1.08v-3.3a1.1 1.1 0 0 0-1.1-1.1m-8.224 0h-2.353l-2.223 8h2.076l.278-1h2.091l.278 1h2.076zM16 15.736l.489 1.764h-.98zM9.5 14.5V16h-2v-1.5zm15 0V16h-2v-1.5zM20.086 2a1 1 0 0 1 .707.293L26.5 8H4V3a1 1 0 0 1 .883-.993L5 2z"/></svg>
